!!!COM: Music21
!!!OTL: jig_Nias
!!!OMV: jig_Nias
**kern
*clefG2
*k[f#c#]
*D:
*M6/8
=1
8dL
8f#
8f#J
8aL
8f#
8f#J
=
8bL
8f#
8f#J
8aL
8f#
8f#J
=
8dL
8f#
8f#J
8aL
8f#
8f#J
=
16bLL
16cc#J
8dd
8cc#J
8ddL
8a
8f#J
=
8dL
8f#
8f#J
8aL
8f#
8f#J
=
8bL
8f#
8f#J
8aL
8f#
8aJ
!!linebreak:original
=
8ddL
8ee
8ff#J
8eeL
8dd
8bJ
=
8aL
8dd
8cc#J
8ddL
8a
8f#J
=||
*M6/8
8dL
8f#
8f#J
8aL
8f#
8f#J
=
8bL
8f#
8f#J
8aL
8f#
8f#J
=
8dL
8f#
8f#J
8aL
8f#
8f#J
=
16bLL
16cc#J
8dd
8cc#J
8ddL
8a
8f#J
!!linebreak:original
=
8dL
8f#
8f#J
8aL
8f#
8f#J
=
8bL
8f#
8f#J
8aL
8f#
8aJ
=
8ddL
8ee
8ff#J
8eeL
8dd
8bJ
=
8aL
8dd
8cc#J
4dd
8ee
=||
8ff#L
8aa
8aaJ
8aaL
8ff#
8eeJ
=
8ddL
8b
8aJ
4dd
8ee
!!linebreak:original
=
8ff#L
8aa
8aaJ
8aaL
8ff#
8eeJ
=
8ddL
8ee
8ff#J
4ee
8ee
=
8ff#L
8aa
8aaJ
8aaL
8ff#
8eeJ
=
8ddL
8b
8aJ
4dd
8ee
=
16ff#LL
16ggJ
8aa
8ff#J
8eeL
8dd
8bJ
=
8aL
8dd
8cc#J
4dd
8ee
!!linebreak:original
=||
8ff#L
8aa
8aaJ
8aaL
8ff#
8eeJ
=
8ddL
8b
8aJ
4dd
8ee
=
8ff#L
8aa
8aaJ
8aaL
8ff#
8eeJ
=
8ddL
8ee
8ff#J
4ee
8ee
=
8ff#L
8aa
8aaJ
8aaL
8ff#
8eeJ
=
8ddL
8b
8aJ
4dd
8ee
!!linebreak:original
=
16ff#LL
16ggJ
8aa
8ff#J
8eeL
8dd
8bJ
=
8aL
8dd
8cc#J
8ddL
8a
8f#J
=||
*-
